images/icons/hourse.svg

<svg width="22" height="32" viewBox="0 0 22 32" fill="none" xmlns="http://www.w3.org/2000/svg">
<path d="M20.8163 29.9437H20.2534C20.2534 29.9377 20.2506 29.9318 20.2495 29.9261L20.2341 29.8573C20.2242 29.812 20.2135 29.7671 20.2025 29.7226C20.1978 29.7016 20.1926 29.6806 20.1875 29.6597C20.1729 29.6009 20.1575 29.5422 20.1417 29.4834L20.137 29.4666C20.1196 29.4029 20.1014 29.3396 20.0825 29.2765L20.0635 29.2155C20.0505 29.172 20.0367 29.129 20.0241 29.086C20.0166 29.0624 20.0087 29.0392 20.0012 29.016C19.9874 28.9744 19.9731 28.9329 19.9585 28.8917C19.951 28.87 19.9431 28.8479 19.9356 28.8266C19.9172 28.775 19.8983 28.7237 19.8788 28.6728C19.8745 28.6619 19.8709 28.6515 19.8666 28.6406C19.8437 28.5807 19.8196 28.5212 19.7951 28.4617C19.7864 28.44 19.7773 28.4187 19.7683 28.3974C19.7517 28.3599 19.7351 28.3188 19.7181 28.2798L19.6862 28.2076C19.6696 28.1702 19.6526 28.1328 19.6352 28.0953C19.6246 28.0721 19.6135 28.0486 19.6025 28.0254C19.5823 27.9823 19.563 27.9397 19.5405 27.8974C19.5322 27.8813 19.5247 27.8648 19.5164 27.8483C19.4884 27.7926 19.4596 27.7361 19.4304 27.6822L19.3909 27.6122L19.3352 27.5108L19.2918 27.4359C19.2736 27.4045 19.2555 27.373 19.2369 27.3416C19.2223 27.3162 19.2073 27.2907 19.1923 27.2668C19.1718 27.2327 19.1529 27.1994 19.1304 27.1657L19.0735 27.0744C19.0467 27.0325 19.0198 26.9902 18.9922 26.9487C18.9748 26.9225 18.9575 26.8966 18.9397 26.8708C18.9219 26.845 18.9026 26.8154 18.8836 26.7881C18.8647 26.7608 18.8442 26.7335 18.8268 26.7065C18.8094 26.6796 18.7905 26.6553 18.7719 26.6317C18.7534 26.6081 18.7324 26.5767 18.7123 26.5493L18.6567 26.4745C18.6172 26.4247 18.5809 26.3749 18.5422 26.3248L18.4881 26.2563C18.4652 26.2275 18.4415 26.199 18.4182 26.1706L18.3661 26.1077C18.342 26.0789 18.3176 26.0505 18.2931 26.0217L18.2418 25.9625L18.1652 25.8757L18.1198 25.8256C18.0254 25.7219 17.9287 25.6197 17.8297 25.5202L17.7862 25.4764L17.6954 25.3877L17.6508 25.345C17.6192 25.3147 17.5877 25.2848 17.5557 25.2552L17.5229 25.2253C17.4112 25.1224 17.2963 25.0221 17.1795 24.9259L17.1475 24.8993C17.1115 24.8694 17.0752 24.8398 17.0386 24.8106L17.0023 24.7814C16.9628 24.7515 16.9269 24.7219 16.8886 24.6923L16.8692 24.6777C16.7401 24.5789 16.6079 24.4828 16.4745 24.3903L16.4559 24.3772C16.4137 24.3484 16.3714 24.32 16.3288 24.2919L16.3008 24.2736C16.2574 24.2447 16.2135 24.2167 16.1697 24.1886L16.1622 24.1841C16.017 24.0921 15.8689 24.0039 15.7181 23.9195L15.7122 23.9158C15.6645 23.8892 15.6167 23.8634 15.5689 23.8376L15.548 23.8263C15.2938 23.6904 15.0327 23.5656 14.7648 23.4521L14.7482 23.445C14.6776 23.415 14.6065 23.3862 14.5347 23.3578H15.9475C16.1776 23.3578 16.3643 23.1067 16.3643 22.7964C16.3643 22.4862 16.1776 22.2351 15.9475 22.2351H15.5267C15.5527 22.1722 15.5816 22.1011 15.6127 22.021C16.0106 21.786 16.7109 21.2852 17.4057 20.3653L17.4112 20.3582C17.4639 20.2894 17.5156 20.2181 17.5664 20.1445L17.5766 20.1299C17.6271 20.0577 17.6777 19.9832 17.7274 19.9054L17.7408 19.8848C17.7645 19.8474 17.7882 19.81 17.8119 19.7725C17.8119 19.7725 17.8119 19.7695 17.8147 19.7677C17.8391 19.7302 17.8632 19.6891 17.8873 19.649L17.9027 19.6232C17.9232 19.5888 17.9441 19.5536 17.9643 19.5181C17.9682 19.5117 17.9722 19.5053 17.9757 19.4986C17.999 19.4582 18.0223 19.417 18.0452 19.3755L18.061 19.3466C18.0799 19.3122 18.0985 19.2774 18.117 19.2422C18.1226 19.2325 18.1281 19.2224 18.1332 19.2123C18.1553 19.17 18.1774 19.1273 18.1995 19.0839L18.2149 19.0536C18.2323 19.0184 18.2501 18.9825 18.2674 18.9466L18.2864 18.9092C18.3077 18.865 18.3286 18.8201 18.3495 18.7748L18.3626 18.746C18.3799 18.7086 18.3969 18.6711 18.4139 18.6337L18.434 18.5888C18.4537 18.5435 18.4735 18.4979 18.4924 18.4518C18.496 18.4436 18.4995 18.435 18.5027 18.4268C18.5205 18.3845 18.5378 18.3414 18.5552 18.298L18.5749 18.2486C18.5911 18.2074 18.6073 18.1659 18.6231 18.1244L18.6349 18.0929C18.6535 18.0435 18.6716 17.993 18.6898 17.9432L18.7088 17.8901C18.723 17.8504 18.7368 17.81 18.7506 17.7696C18.7557 17.7546 18.7609 17.7396 18.7656 17.7247C18.783 17.673 18.8003 17.6203 18.8173 17.5675C18.8228 17.5492 18.8288 17.5301 18.8343 17.5128L18.8738 17.3897C18.8789 17.3718 18.8844 17.3523 18.8896 17.3362C18.9057 17.2819 18.9219 17.2266 18.9373 17.1708C18.9424 17.1532 18.9472 17.1352 18.9519 17.1173C18.9638 17.0742 18.9756 17.0312 18.9871 16.9874C18.9922 16.9676 18.9973 16.9477 19.0028 16.9279C19.0175 16.8703 19.0321 16.8123 19.0463 16.7535L19.0581 16.7045C19.0692 16.6577 19.0802 16.6105 19.0909 16.563L19.1051 16.4994C19.1185 16.4384 19.1319 16.3774 19.1446 16.3153C19.1473 16.3033 19.1497 16.2909 19.1521 16.2778C19.1631 16.2243 19.1738 16.1701 19.184 16.1158C19.1884 16.0937 19.1923 16.0716 19.1967 16.0496C19.2069 15.9938 19.2168 15.9373 19.2267 15.8815C19.2286 15.8695 19.231 15.8579 19.233 15.8463C19.244 15.7805 19.2548 15.7141 19.2654 15.6472C19.2689 15.6248 19.2725 15.6023 19.2756 15.5795C19.2839 15.5252 19.2918 15.4706 19.2997 15.4152L19.3068 15.3643C19.3163 15.2955 19.3254 15.2262 19.334 15.1559C19.3368 15.1338 19.3392 15.1117 19.3419 15.0892C19.3488 15.0334 19.3551 14.9772 19.3609 14.9208C19.3633 14.9006 19.3656 14.8808 19.3676 14.8606C19.3752 14.7882 19.3823 14.7153 19.3889 14.6417C19.3889 14.6211 19.3925 14.6005 19.394 14.5795C19.3992 14.5204 19.4043 14.4609 19.4086 14.401C19.4086 14.3789 19.4122 14.3569 19.4138 14.3348C19.4193 14.2584 19.4244 14.1816 19.4292 14.1042C19.4292 14.0867 19.4292 14.0668 19.4319 14.0511C19.4355 13.9867 19.439 13.922 19.4418 13.8569C19.4418 13.8333 19.4418 13.8097 19.445 13.7861C19.4481 13.7057 19.4513 13.6248 19.4537 13.5429C19.4537 13.5316 19.4537 13.52 19.4537 13.5084C19.4558 13.4356 19.4573 13.362 19.4584 13.2876C19.4584 13.2633 19.4584 13.239 19.4584 13.2147C19.4584 13.1348 19.4584 13.0545 19.4584 12.9737V12.9549C19.4584 12.8689 19.4584 12.7817 19.4584 12.693V12.6181C19.4584 12.5433 19.4552 12.4647 19.4533 12.3868V12.3445C19.4505 12.2547 19.4469 12.1638 19.4434 12.0725C19.4434 12.0489 19.441 12.0249 19.4402 12.0014C19.4368 11.9245 19.4329 11.8472 19.4284 11.7693C19.4284 11.7502 19.4284 11.7319 19.4252 11.7113C19.4197 11.6178 19.4136 11.5235 19.4071 11.4284L19.4023 11.3622C19.3964 11.2828 19.3905 11.2031 19.3838 11.1226C19.3838 11.0994 19.3802 11.0762 19.3783 11.053C19.37 10.9557 19.3609 10.8573 19.3514 10.7585C19.3514 10.7398 19.3475 10.7211 19.3459 10.702C19.3376 10.6178 19.3285 10.5328 19.3194 10.4471C19.3167 10.4213 19.3139 10.3959 19.3108 10.37C19.2997 10.2682 19.2879 10.1661 19.2752 10.0624C19.2752 10.0497 19.2717 10.037 19.2701 10.025C19.2588 9.93217 19.2468 9.83886 19.2342 9.74505C19.2302 9.71736 19.2267 9.68966 19.2227 9.66197C19.208 9.55569 19.1929 9.44852 19.1773 9.34049C17.5983 -1.31572 6.40876 0.413656 6.40876 0.413656L6.76719 2.70328L0 9.48083L0.295667 12.0979L2.85917 13.5949C2.97345 13.3195 3.12017 13.0573 3.29655 12.8131C4.95055 11.0044 8.15947 9.5845 9.07805 9.28997C9.26201 9.23121 9.36662 9.20165 9.36662 9.20165C4.97266 14.593 5.47241 20.7695 5.66821 22.2418C5.46452 22.2792 5.30701 22.5124 5.30701 22.7968C5.30701 23.1067 5.49373 23.3582 5.72387 23.3582H7.13668C4.78699 24.2906 2.92185 26.0665 1.94848 28.2982C1.94734 28.3012 1.94602 28.3042 1.94454 28.3072C1.87269 28.4728 1.80585 28.6409 1.74401 28.8113C1.74411 28.813 1.74411 28.8148 1.74401 28.8165C1.72743 28.8629 1.71124 28.9093 1.69545 28.9561C1.68953 28.9729 1.68361 28.9898 1.67808 29.007C1.66387 29.0489 1.65071 29.0912 1.63861 29.1339C1.6315 29.1556 1.62479 29.1777 1.61808 29.1994C1.60545 29.2394 1.59321 29.2798 1.58137 29.3202L1.56005 29.3951C1.549 29.4325 1.53795 29.4726 1.52768 29.5115C1.52018 29.5392 1.51308 29.5665 1.50597 29.5942C1.4965 29.6316 1.48663 29.669 1.47755 29.7065C1.46847 29.7439 1.45978 29.7813 1.4511 29.821C1.44241 29.8606 1.43136 29.9071 1.42189 29.9505H0.85858C0.750258 29.9482 0.642551 29.9665 0.541778 30.0042C0.441006 30.0419 0.3492 30.0984 0.271747 30.1702C0.194294 30.242 0.13275 30.3278 0.0907365 30.4225C0.0487226 30.5172 0.0270812 30.6189 0.0270812 30.7216C0.0270812 30.8243 0.0487226 30.926 0.0907365 31.0207C0.13275 31.1154 0.194294 31.2011 0.271747 31.273C0.3492 31.3448 0.441006 31.4012 0.541778 31.439C0.642551 31.4767 0.750258 31.495 0.85858 31.4927H20.8234C20.9318 31.495 21.0395 31.4767 21.1402 31.439C21.241 31.4012 21.3328 31.3448 21.4103 31.273C21.4877 31.2011 21.5493 31.1154 21.5913 31.0207C21.6333 30.926 21.6549 30.8243 21.6549 30.7216C21.6549 30.6189 21.6333 30.5172 21.5913 30.4225C21.5493 30.3278 21.4877 30.242 21.4103 30.1702C21.3328 30.0984 21.241 30.0419 21.1402 30.0042C21.0395 29.9665 20.9318 29.9482 20.8234 29.9505L20.8163 29.9437Z" fill="#595653"/>
</svg>

<svg width="22" height="32" fill="none" xmlns="http://www.w3.org/2000/svg">
  <path d="M20.816 29.944h-.563l-.003-.018-.016-.069a5.09 5.09 0 0 0-.032-.134l-.015-.063a9.523 9.523 0 0 0-.045-.177l-.005-.016a8.111 8.111 0 0 0-.055-.19l-.018-.062-.04-.129-.023-.07a6.495 6.495 0 0 0-.043-.124l-.022-.065a7.031 7.031 0 0 0-.057-.154l-.012-.032a7.571 7.571 0 0 0-.072-.18l-.027-.064-.05-.117-.032-.072a7.38 7.38 0 0 0-.084-.183c-.02-.043-.039-.085-.061-.128l-.025-.049a6.16 6.16 0 0 0-.086-.166l-.04-.07-.055-.101-.043-.075-.055-.094a2.274 2.274 0 0 0-.045-.075c-.02-.034-.04-.068-.062-.101l-.056-.092-.082-.125a5.298 5.298 0 0 0-.052-.078l-.056-.083c-.02-.027-.04-.055-.057-.082a.983.983 0 0 0-.055-.074c-.019-.024-.04-.055-.06-.083l-.055-.075c-.04-.05-.076-.1-.115-.15l-.054-.068-.07-.085-.052-.063c-.024-.03-.048-.058-.073-.086l-.051-.06-.077-.086-.045-.05a9.498 9.498 0 0 0-.29-.306l-.044-.044-.09-.088-.045-.043a7.278 7.278 0 0 0-.095-.09l-.033-.03a8.237 8.237 0 0 0-.343-.3l-.032-.026a7.135 7.135 0 0 0-.11-.088l-.036-.03c-.04-.03-.075-.06-.113-.089l-.02-.014c-.129-.1-.261-.195-.395-.288l-.018-.013a9.713 9.713 0 0 0-.127-.085l-.028-.018c-.044-.03-.087-.057-.131-.085l-.008-.005a9.483 9.483 0 0 0-.444-.265l-.006-.003a11.842 11.842 0 0 0-.143-.078l-.021-.012a9.62 9.62 0 0 0-.783-.374l-.017-.007a9.163 9.163 0 0 0-.213-.087h1.412c.23 0 .417-.251.417-.562 0-.31-.186-.56-.417-.56h-.42l.086-.215c.398-.235 1.098-.736 1.793-1.656l.005-.007c.053-.069.105-.14.155-.213l.01-.015c.051-.072.102-.147.151-.225l.014-.02.07-.113s0-.002.004-.004l.072-.119.016-.026.061-.105.012-.02.07-.123.015-.028a6.403 6.403 0 0 0 .139-.263l.015-.03.052-.107.02-.038.063-.134.013-.029.05-.112.021-.045a7.044 7.044 0 0 0 .121-.291l.02-.05.048-.124.012-.031.055-.15.019-.053.042-.12.015-.045a12.614 12.614 0 0 0 .068-.212l.04-.123c.005-.018.01-.038.016-.054a9.077 9.077 0 0 0 .097-.349l.016-.06c.014-.057.03-.115.043-.174l.012-.049.033-.141.014-.064a12.913 12.913 0 0 0 .079-.383l.013-.066.03-.168.006-.036.032-.199a16.55 16.55 0 0 0 .034-.232l.008-.05.027-.21.008-.066a8.25 8.25 0 0 0 .026-.228l.02-.22c0-.02.004-.04.006-.062l.015-.178c0-.022.003-.044.005-.066l.015-.23c0-.018 0-.038.003-.054l.01-.194c0-.024 0-.047.003-.07l.009-.244v-.035l.004-.22V12.618c0-.075-.003-.153-.005-.231v-.043c-.002-.09-.006-.18-.01-.271L19.44 12a17.182 17.182 0 0 0-.012-.232c0-.019 0-.037-.003-.058a29.902 29.902 0 0 0-.018-.283l-.005-.066-.018-.24c0-.023-.004-.046-.006-.069a27.538 27.538 0 0 0-.027-.295c0-.018-.003-.037-.005-.056l-.027-.255a23.313 23.313 0 0 0-.044-.385c0-.012-.003-.025-.005-.037a22.797 22.797 0 0 0-.036-.28l-.011-.083-.046-.322C17.598-1.316 6.41.414 6.41.414l.358 2.29L0 9.48l.296 2.617 2.563 1.497c.114-.276.261-.538.438-.782C4.95 11.004 8.159 9.584 9.078 9.29c.184-.059.289-.088.289-.088-4.394 5.391-3.895 11.568-3.699 13.04-.203.037-.361.27-.361.555 0 .31.187.561.417.561h1.413c-2.35.933-4.215 2.709-5.189 4.94a2.614 2.614 0 0 0-.31.836l-.02.065-.037.121-.021.075a4.219 4.219 0 0 0-.054.2c-.01.037-.02.074-.028.111-.01.038-.018.075-.027.115l-.03.13H.86a.853.853 0 0 0-.587.22.77.77 0 0 0-.181.252.737.737 0 0 0 .18.85.821.821 0 0 0 .588.22h19.964a.853.853 0 0 0 .587-.22.772.772 0 0 0 .181-.252.737.737 0 0 0-.18-.85.853.853 0 0 0-.587-.22l-.008-.007Z" fill="#595653"/>
</svg>
